X:455
T: Molly's Bonnet
S: "Music of Ireland - The Big Session" (DJ Taylor)
Z: B.Black
L: 1/8
M: 4/4
R: reel
K: Ador
AGAB cBcd|edef g3 F|G2 AF G2 DF|GABc dBAG|
AGAB cBcd|edef g2 AB|cBAc BAGB|A2 AG A2 e2 :|
e2 a2 a3 g|abag ed^cd|edef g2 ag|ed^cd e4|
AGAB c3 d|edef g2 AB|cBAc BAGB|ABAG A4 :|
